!!!COM: Mozart, Wolfgang Amadeus
!!!OTL: Musikalische Würfelspiele, Kontre-Tänze
!!!SCA: K<sup>6</sup> Anh. C30.01 (K<sup>3</sup> Anh. 294d)
**kern	**kern
*staff2	*staff2
*clefF4	*clefG2
*M2/4	*M2/4
*MM110	*MM110
*>[A,A1,A,A2,B]	*>[A,A1,A,A2,B]
*>norep[A,A2,B]	*>norep[A,A2,B]
*>A	*>A
=36	=36
4C	8cc
.	16c
.	16e
4C	8g
.	16cc
.	16ee
=150	=150
16C	8gg
16E	.
16G	8ee
16E	.
4C	16cc
.	16ee
.	16gg
.	16ee
=40	=40
8G	16ff
.	16ee
8GG	16dd
.	16cc
8GG	16b
.	16cc
8GG	16dd
.	16b
=37	=37
16C	8cc
16c	.
16B	8ee
16c	.
4C	4g
=147	=147
4D	16dd
.	16ee
.	16ff#
.	16gg
4F#	16aa
.	16ff#
.	16ee
.	16dd
=125	=125
4G	16bb
.	16ddd
.	16ccc
.	16bb
4BB	16aa
.	16gg
.	16ff#
.	16gg
=23	=23
4C	16ee
.	16cc
.	16ee
.	16cc
4D	8a
.	8ff#
=44	=44
*>A1	*>A1
4GG	4g 4b 4gg
16G	4r
16F	.
16E	.
16D	.
=44:|!	=44:|!
*>A2	*>A2
4GG	4g 4b 4gg
16GG	4r
16AA	.
16BB	.
16C#	.
=22||	=22||
*>B	*>B
4D	16aa
.	16bb
.	16aa
.	16gg
4C 4D	16ggQ
.	16ff#
.	16ee
.	16dd
=133	=133
16BB	8dd
16D	.
16G	4gg
16D	.
16BB	.
16D	.
16G	8bb
16D	.
=72	=72
16C	4ee
16E	.
16G	.
16E	.
16C	8cc
16E	.
16G	8cc
16E	.
=173	=173
4GG	16b
.	16g
.	16d
.	16B
4r	16G
.	16g
.	16b
.	16dd
=134	=134
4C	16cc
.	16ee
.	16gg
.	16ee
4r	16cc
.	16g
.	16cc
.	16ee
=32	=32
4C	8ccc
.	8gg
4r	8ee
.	8cc
=154	=154
4G	8ff
.	8dd
4GG	8cc
.	8b
=146	=146
4C	4cc
4CC	4c
==	==
*-	*-
